X:382
T:Muirsheen Durkin
R:March
Z: Chords by Robin Shaylor, 2002
M:4/4
L:1/4
K:D
%Transposed from C
D/E/ |\
"D" FFED  | "A7" EAA>B |      cAGE | "D" EDD>E |
"D" FFED  | "A7" EAA>B | "Em" cABc | "D" d3 A  |
"D" d>ded | "A7" cAA>B |      cAGE | "D" EDD>E |
"D" FFED  | "A7" EAA>B | "Em" cAGE | "D" D3    |]
